X:91
%%vocalfont Baskerville10Pro 11
%%pagewidth 8.5in
T:The Spanish Lady
M:3/4
L:1/8
K:A
%%score 1 2
V:1 clef-treble
V:2 clef-bass octave=-1
V:1
EA&C2|[DG]3[CEA]BB&x4E2|(c/B/)A3AG&E4E2|F3EFG&D4D2|
w:Will you hear a Span-ish la-*dy, How she wooed an English*
V:2
A2|B3A[GB]2|A4[CA]2|[DA]4B,2|
V:1
[CEA]4EA&x4C2|[DG]3[CEA] BB&x4E2|(c/B/)A3AG&E4E2|[DF]3[A,E] [DF][B,DG]|
w:man? Gar-ments gay, and rich as may* be, Deck'd with Jew-els she had
V:2
(A,2A2)A2|B3A[GB]2|A4[CA]2|[DA]3C B,E|
V:1
[CA]3A/B/ [AC][Ge]|[Fd][Ec][DB][CA] cd&x4A2|[Ae]3A/B/ c[Be]|[Ad][Gc][FB][DA] [EAc][DGB]|[CA]4||
w:on. Of a come-ly count-en-ance and grace was she, And by birth and pa-rent-age of high de-gree.
V:2
(A2A,2)A,2|A4F2|(C2A,2)AG|FEDFE2|(A2A,2)||

%%%%staffscale 1.0
